X:195
T:Sully's
R:reel
Z:transcribed by Dave Marshall
M:C|
K:A
|: A3B c2BA | F~E3 FECE | A3B cefe | afec BFAF |
EA (3AAA FAEA | ce (3eee ceae | a~f3 f2af |1 ecBc AFEF :|2 ecBc ABcd |
|: e3e f2ec | BecB A~F3 | ce (3eee fece | fege afed | 
ce (3eee f2af | ecBc AFE2 | ~a3e f2af |1 ecBc ABcd :|2 ecBc AFEF |
